X: 41535
T: Uncle's
R: jig
M: 6/8
K: Gmajor
d2d dcB|ded dcB|g2g f2e|d3d2 B|
c2d edc|B2d G2B|A2B c2A|G2G FED|
ded dcB|ded dcB|g2g f2e|d3d2 B|
c2d edc|B2d G2B|A2c B2A|G2z B3||
K:D
|:A2d c2e|d2f a2f|e2f gfe|d2f A3|
A2d c2e|d2f a2f|e2f gfe|d3d3:|

